X:1
T:Title
%%score { ( 1 3 ) | 2 }
L:1/8
M:4/4
K:Bb
V:1 treble nm="Grand Piano"
V:3 treble 
V:2 bass 
V:1
 z4 z2[Q:1/4=100] [B,D]>[CE] | [DF]2 [Fd]2 [=E_d]2 [F=d]2 | [DB]2 [DF]4 [B,D]>[CE] | %3
 [DF]2 [DF]2 [DG]2 [DF]2 | E6 A>B | c2 =B2 c2 B2 | c2 A4 B>c | [Fd]2 [=E_d]2 [F=d]2 [DB]2 | %8
 [Ec]6 [B,D]>[CE] | [DF]2 [Fd]2 [=E_d]2 [F=d]2 | [DB]2 [DF]4 [_D=E]>[=DF] | %11
 [EG]2 [EA]2 [GB]2 [Gc]2 | [^Fd]6 [Fd]2 | [Ge]2 [Gd]2 [Gc]2 [GB]2 | B2 F2 =E2 F2 | %15
 [=EG]2 [EA]2 [EB]2 [EG]2 |[M:3/4] [Ec]6 |[M:1/4] [EF]2 |[M:4/4] [DB]2 [Fd]4 [CA]2 | %19
 [Ec]2 [DB]4 [B,D]>[CE] | [DF]2 [DF]2 [DG]2 [DB]2 | A6 A>B | c2 =B2 c2 B2 | c6 =B>c | %24
 [Fd]2 [Ec]2 [Fd]2 [Ec]2 | [Fd]2 [FB]2 [EG]2 [EF]2 | [DB]2 [Fd]4 [CA]2 | [Ec]2 [DB]4 [DF]>[DF] | %28
 [B,EG]2 [B,EG]2 [=B,FG]2 [B,FG]2 | [CEc]2 z2 z4 | z2 B2 A2 G2 | F2 F2 F2 d2 | [Ec]8 | %33
[M:3/4] [B,DB]6 |] %34
V:2
 z4 z2 [B,,F,]>[B,,F,] | [B,,B,]2 [B,,B,]2 [B,,B,]2 [B,,B,]2 | [B,,F,]2 [B,,B,]4 [B,,F,]>[B,,F,] | %3
 [B,,B,]2 [B,,B,]2 [B,,B,]2 [B,,B,]2 | [F,A,C]6 [F,A,C]>[F,A,D] | %5
 [F,A,E]2 [F,_A,D]2 [F,=A,E]2 [F,_A,D]2 | [F,A,E]2 [F,CE]4 [F,B,D]>[F,A,E] | %7
 [B,,B,]2 [B,,B,]2 [B,,B,]2 [B,,B,]2 | [F,A,]6 [B,,F,]>[B,,F,] | %9
 [B,,B,]2 [B,,B,]2 [B,,B,]2 [B,,B,]2 | [B,,F,]2 [B,,B,]4 [B,,B,]>[B,,B,] | %11
 [E,B,]2 [E,B,]2 [E,G,]2 [E,G,]2 | [D,A,]6 [D,A,]2 | [C,C]2 [D,=B,]2 [E,C]2 [=E,_D]2 | %14
 [F,DF]2 [F,B,D]2 [G,B,_D]2 [F,B,=D]2 | [C,B,]2 [C,A,]2 [C,G,]2 [C,B,]2 |[M:3/4] [F,A,]6 | %17
[M:1/4] [F,A,]2 |[M:4/4] [B,,F,]2 [B,,B,]4 [B,,F,]2 | [B,,F,]2 [B,,B,]4 [B,,F,]>[B,,F,] | %20
 [B,,B,]2 [B,,B,]2 [B,,B,]2 [B,,B,]2 | [F,CE]6 [F,CE]>[F,B,D] | %22
 [F,A,E]2 [F,_A,D]2 [F,=A,E]2 [F,_A,D]2 | [F,A,E]6 [F,_A,D]>[F,=A,E] | %24
 [B,,B,]2 [B,,B,]2 [B,,B,]2 [B,,B,]2 | [B,,B,]2 [D,B,]2 [E,B,]2 [F,A,]2 | %26
 [B,,F,]2 [B,,B,]4 [B,,B,]2 | [B,,F,]2 [B,,F,]4 [B,,B,]>[B,,B,] | E,2 E,2 D,2 D,2 | %29
 C,2[K:treble] B2 A2 G2 | F2 B,2[K:bass] A,2 G,2 | F,2 F,2 F,2 [F,B,F]2 | [F,A,]2 F,2 F,2 F,2 | %33
[M:3/4] B,,6 |] %34
V:3
 x8 | x8 | x8 | x8 | x8 | x8 | x8 | x8 | x8 | x8 | x8 | x8 | x8 | x8 | x8 | x8 |[M:3/4] x6 | %17
[M:1/4] x2 |[M:4/4] x8 | x8 | x8 | x8 | x8 | x8 | x8 | x8 | x8 | x8 | x8 | x8 | x8 | x8 | %32
 z4 G,2 A,2 |[M:3/4] x6 |] %34

